X: 1827
T: Sûzidil Aranağme (Curcuna)
C: ?
O: Turkey
F: http://compmusic.upf.edu/node/140
N: suzidil--aranagme--curcuna--1--
N: makam= suzidil
N: form= aranagme
N: usul= curcuna = 10/8
M: 10/8
L: 1/16
K: C ^1/4f ^g ^d 
Q: 1/4=168
%%MIDI tuningsystem comma53
e4 =f2e2 d2c2 B2A2 G2A2  | B2c2 d2e2 =f2d2 f2{f}e4z2  | \
w:  ARANAĞME  |   | 
e4 g2=f2 e2d2 e2f2 e2d2  | 
w:   | 
c2B2 =f2e2 .d2c2 B2B4z2  | B2^2/4c2 =d4 B2c2 d2e4=c2  | \
w:   |   | 
B2c2 =d2c2 B2A2 B2G6  | 
w:   | 
=F2E2 D2E2 F2G2 A2G2 F2E2  | D2E2 =F2G2 E2F2 D2E4z2  | \
w:   |   | 
e4 =f2e2 d2c2 B2A2 G2A2  | 
w:  ARANAĞME  | 
B2c2 d2e2 =f2d2 f2{f}e4z2  | e4 g2=f2 e2d2 e2f2 e2d2  | \
w:   |   | 
c2B2 =f2e2 .d2c2 B2B4z2  | 
w:   | 
B2^2/4c2 =d4 B2c2 d2e4=c2  | B2c2 =d2c2 B2A2 B2G6  | \
w:   |   | 
=F2E2 D2E2 F2G2 A2G2 F2E2  | 
w:   | 
D2E2 =F2G2 E2F2 D2E4z2  | |


